X: 14
T: Far Away (Harmony)
C: harmony by Adlai Waksman
M: 3/4
R: waltz
K: Bm
 z2 |: B,CD3 F | EDC4 | DEF3 G |  E2 A4 |
 GFG3 A | F4 A2 | B2 F3 E ||1 DFGE DC :|2 DFGA B_B ||
|: A4 DF | A3 A Bc | d2 A2 D2 | E2 G2 A2 |
B3 A3 | G3 F3 | B,CDF- FE ||1 D4 B_B :|2 D4 z2 |] \
"opt. for last time"DC B,4|]
%%text Harmony 4/26/04 for "Far Away" by Peter Jung
